!!!OTL: Sieben Straeuss Es wollt ein Maedchen zum Tanze gehn.
!!!ARE: Europa, Mitteleuropa, Lothringen, Weiler
!!!SCT: D0034
!!!YEM: Copyright 1995, estate of Helmut Schaffrath.
**kern
*ICvox
*Ivox
*M3/4
*k[b-]
*d:
{4a
4a
4g
=1
4.fn
8g
4a
=2
8a
8g
4fn
[4e
=3
2.e]}
=4
{8g
8g
8g
8g
4a
=5
4.d
8e
4fn
=6
4e
4d
[4cn
=7
2cn]}
{4cn
=8
2fn
4g
=9
2a
8g
8fn
=10
2.e
=11
2.d}
==
!!!AGN: Ballade, vergebliche Werbung
!! Inzipit = Variante zum Lied
!!!ONB: ESAC (Essen Associative Code) Database: DVA
!!!AMT: simple triple
!!!AIN: vox
!!!EED: Helmut Schaffrath
!!!EEV: 1.0
*-
